beaker.svg

<svg fill="currentColor" viewBox="0 0 24 24"><path d="M3 3v2a2 2 0 0 1 2 2v12a2 2 0 0 0 2 2h10a2 2 0 0 0 2-2V7a2 2 0 0 1 2-2V3zm4 6h3v1H7zm0 2h3v1H7zm3 5H7v-1h3zm2-2H7v-1h5zm0-6H7V7h5z"/></svg>

<svg  viewBox="0 0 24 24" fill="currentColor"><path  d="M3,3V5A2,2 0 0,1 5,7V19A2,2 0 0,0 7,21H17A2,2 0 0,0 19,19V7A2,2 0 0,1 21,5V3H3M7,9H10V10H7V9M7,11H10V12H7V11M10,16H7V15H10V16M12,14H7V13H12V14M12,8H7V7H12V8Z"/></svg>
